X:0164
T:Grace's Farewell
M:6/8
L:1/8
Q:3/8=90
I: :: ::
Z:Jack Campin * www.campin.me.uk * 2009
K:G
B|G>AB g(e/f/g)|gdB d2B   |G>AB g(e/f/g)|gdB A2
B|G>AB g(e/f/g)|gdB g2a   |f>ed edB     |dBG G2:|
B|G>AB d2e     |dBG d2B   |G>AB d2e     |dBG A2
B|G>AB d2e     |dBd g2a/g/|f>ed edB     |dBG G2:|

